X: 1
T: Jer O'Connel's
O: Abbeyfeale
M: 2/4
L: 1/8
R: polka
K: D
V: Melody
|: "D" AD F/E/D | FA d2 | "A7" cA AG |     EF G A/B/ | 
   "D" AD F/E/D | FA d2 | "A7" cA GE | "D" D2 D2    :|
|: "D" Ad de    | fd ed | "A7" cA AB |     cd ec     | 
   "D" Ad de    | fd ed | "A7" cA GE | "D" D2 D2    :|
